!!!COM: Palestrina, Giovanni Perluigi da
!!!OPR: Missa Gabriel Archangelus
!!!OTL: Agnus II
**kern	**kern	**kern	**kern	**kern	**kern
*Ibass	*Itenor	*Itenor	*Icalto	*Icalto	*Icant
!Bassus	!Tenor 2	!Tenor 1	!Altus 2	!Altus 1	!Cantus
*clefF4	*clefGv2	*clefGv2	*clefG2	*clefG2	*clefG2
*k[b-]	*k[b-]	*k[b-]	*k[b-]	*k[b-]	*k[b-]
*D:aeo	*D:aeo	*D:aeo	*D:aeo	*D:aeo	*D:aeo
*M4/2	*M4/2	*M4/2	*M4/2	*M4/2	*M4/2
=1	=1	=1	=1	=1	=1
1r	0r	0d	0r	0r	0r
[1d	.	.	.	.	.
=2	=2	=2	=2	=2	=2
1d]	0d	1G	0r	0r	0r
1G	.	2.B-	.	.	.
.	.	4c	.	.	.
=3	=3	=3	=3	=3	=3
2.B-	1G	2.d	0r	0r	0dd
4A	.	4c	.	.	.
2G	[1d	2B-	.	.	.
2F	.	2A	.	.	.
=4	=4	=4	=4	=4	=4
1E	2d]	2G	0r	0r	1g
.	2c#	2.g	.	.	.
1D	1d	.	.	.	2b-
.	.	8f	.	.	.
.	.	8e	.	.	.
.	.	2f	.	.	2a
=5	=5	=5	=5	=5	=5
2r	1B-	1d	0r	1r	4g
.	.	.	.	.	4f
1d	.	.	.	.	4f
.	.	.	.	.	8e
.	.	.	.	.	8d
.	1A	2r	.	[1a	1e
2c#	.	2e	.	.	.
=6	=6	=6	=6	=6	=6
1d	0r	2f	0a	1a]	1d
.	.	2.f	.	.	.
1r	.	.	.	1d	2r
.	.	4e	.	.	.
.	.	4f	.	.	[2dd
.	.	4g	.	.	.
=7	=7	=7	=7	=7	=7
0r	0r	2a	1d	2.f	2dd]
.	.	1d	.	.	2a
.	.	.	.	4e	.
.	.	.	[1a	2d	2ff
.	.	2e	.	2c	2ee
=8	=8	=8	=8	=8	=8
1r	2r	2f	2a]	1B-	1dd
.	1d	2d	2g	.	.
[1A	.	1e	[1a	1A	1r
.	2c	.	.	.	.
=9	=9	=9	=9	=9	=9
1A]	2f	0A	1a]	0r	1cc
.	2.e	.	.	.	.
1D	.	.	1f	.	1dd
.	4d	.	.	.	.
.	[2d	.	.	.	.
=10	=10	=10	=10	=10	=10
1.A	2d]	0r	2.e	0a	1ee
.	4c	.	.	.	.
.	4B	.	4d	.	.
.	2c#	.	2e	.	1a
2F	2d	.	[2d	.	.
=11	=11	=11	=11	=11	=11
1G	2B-	0r	4d]	1d	1.b-
.	.	.	4c	.	.
.	1d	.	4B-	.	.
.	.	.	4A	.	.
1E	.	.	1G	[1g	.
.	2c#	.	.	.	4a
.	.	.	.	.	4g
=12	=12	=12	=12	=12	=12
1D	1d	2r	0r	2g]	2b-
.	.	1d	.	2f#	2a
1r	1G	.	.	[1g	2.b-
.	.	2G	.	.	.
.	.	.	.	.	4cc
=13	=13	=13	=13	=13	=13
0r	0r	2B-	1r	1g]	2dd
.	.	2c	.	.	2ee
.	.	2d	1d	2.f	2ff
.	.	2B-	.	.	[2dd
.	.	.	.	8e	.
.	.	.	.	8d	.
=14	=14	=14	=14	=14	=14
1r	0r	1A	1a	1e	2dd]
.	.	.	.	.	2cc#
1D	.	[1d	1f	2d	[1dd
.	.	.	.	2a	.
=15	=15	=15	=15	=15	=15
1G	2r	1d]	1g	1b-	0dd]
.	2G	.	.	.	.
2F	1d	1r	2a	2a	.
2G	.	.	2b-	4g	.
.	.	.	.	4f	.
=16	=16	=16	=16	=16	=16
2A	2c#	0r	2a	2e	0r
2B-	2d	.	2g	2.d	.
2A	2e	.	1a	.	.
.	.	.	.	4c	.
2F	2f	.	.	[2c	.
=17	=17	=17	=17	=17	=17
2.G	4e	2r	1g	4c]	0r
.	4d	.	.	8B-	.
.	.	.	.	8A	.
.	1d	2d	.	2B-	.
4F	.	.	.	.	.
1E	.	1g	1r	1G	.
.	2c#	.	.	.	.
=18	=18	=18	=18	=18	=18
0D	0d	2.f	1a	2r	1r
.	.	.	.	2d	.
.	.	4e	.	.	.
.	.	2d	2.f	1a	2r
.	.	2A	.	.	2a
.	.	.	4e	.	.
=19	=19	=19	=19	=19	=19
0r	0r	1B-	1d	2f	1dd
.	.	.	.	2g	.
.	.	2A	2e	2a	2cc#
.	.	2G	2g	2b-	2dd
=20	=20	=20	=20	=20	=20
0r	0r	2c	2g	1a	2ee
.	.	2d	2f	.	2ff
.	.	1G	1b-	2.g	4ee
.	.	.	.	.	4dd
.	.	.	.	.	[2dd
.	.	.	.	4f	.
=21	=21	=21	=21	=21	=21
1r	2r	1A	[0a	1e	2dd]
.	2A	.	.	.	2cc
1D	1d	1r	.	2d	1ff
.	.	.	.	2d	.
=22	=22	=22	=22	=22	=22
2A	2c#	1r	0a]	2e	2ee
2D	2d	.	.	2f	2dd
1A	2e	2r	.	2e	2cc
.	[2f	2A	.	2c	[2a
=23	=23	=23	=23	=23	=23
1B-	2f]	1d	0r	2d	2a]
.	4e	.	.	2G	2g
.	4d	.	.	.	.
[1A	2e	2c#	.	1r	[1a
.	[2d	2d	.	.	.
=24	=24	=24	=24	=24	=24
1A]	2d]	1e	2r	0r	1a]
.	2c#	.	2e	.	.
[1D	2d	2.f	1a	.	1r
.	[2f	.	.	.	.
.	.	4e	.	.	.
=25	=25	=25	=25	=25	=25
2D]	2f]	2d	2f	1r	0r
2E	2e	4c	2g	.	.
.	.	4B-	.	.	.
2F	4d	2A	2a	2r	.
.	4c	.	.	.	.
2G	4B-	[2d	[2b-	2d	.
.	4A	.	.	.	.
=26	=26	=26	=26	=26	=26
1E	1G	2d]	2b-]	1.g	1r
.	.	2c#	4a	.	.
.	.	.	4g	.	.
1D	2r	[1d	2b-	.	2r
.	[2d	.	2a	[2f	2a
=27	=27	=27	=27	=27	=27
0r	4d]	1d]	2r	2f]	1dd
.	4c	.	.	.	.
.	2B-	.	2d	2g	.
.	2A	1r	2e	2a	2cc
.	2G	.	[2g	[2b-	2dd
=28	=28	=28	=28	=28	=28
0r	2c	0r	2g]	2b-]	2ee
.	2d	.	4f	2.a	2.ff
.	.	.	4e	.	.
.	1B-	.	1d	.	.
.	.	.	.	8g	4ee
.	.	.	.	8f	.
.	.	.	.	2g	[2dd
=29	=29	=29	=29	=29	=29
1r	1A	0r	1e	2.a	2dd]
.	.	.	.	.	2cc#
.	.	.	.	4g	.
2r	1B-	.	1d	2f	1dd
2G	.	.	.	2g	.
=30	=30	=30	=30	=30	=30
2A	1c	0r	0r	1e	1r
1c	.	.	.	.	.
.	[1G	.	.	1d	2r
4B-	.	.	.	.	[2dd
4A	.	.	.	.	.
=31	=31	=31	=31	=31	=31
1B-	1G]	1d	0r	0r	2dd]
.	.	.	.	.	2dd
2A	1r	2e	.	.	2cc
2G	.	[2g	.	.	2b-
=32	=32	=32	=32	=32	=32
1d	0r	2g]	2r	0r	1a
.	.	4f	1d	.	.
.	.	4e	.	.	.
2.A	.	2f	.	.	1a
.	.	[2e	2c	.	.
4G	.	.	.	.	.
=33	=33	=33	=33	=33	=33
2F	0r	2e]	2A	0r	2r
2G	.	1d	2B-	.	2dd
1E	.	.	1G	.	2ee
.	.	2c#	.	.	[2gg
=34	=34	=34	=34	=34	=34
1D	2r	1d	1A	0r	2gg]
.	1d	.	.	.	4ff
.	.	.	.	.	4ee
1r	.	1A	[1a	.	2ff
.	2c	.	.	.	[2ee
=35	=35	=35	=35	=35	=35
0r	2f	0r	2a]	2r	2ee]
.	2f	.	2a	2d	1dd
.	1e	.	1g	2e	.
.	.	.	.	[2g	2cc#
=36	=36	=36	=36	=36	=36
1G	1d	0r	1b-	2g]	1dd
.	.	.	.	4f	.
.	.	.	.	4e	.
2A	1r	.	1a	2f	1r
[2c	.	.	.	[2e	.
=37	=37	=37	=37	=37	=37
2c]	0r	0r	1g	2e]	2r
4B-	.	.	.	1d	1g
4A	.	.	.	.	.
2B-	.	.	1r	.	.
[2A	.	.	.	2c#	2f
=38	=38	=38	=38	=38	=38
4A]	0r	0r	2r	1d	2b-
4G	.	.	.	.	.
1G	.	.	2g	.	2b-
.	.	.	2a	2e	1a
2F	.	.	[2cc	2f	.
=39	=39	=39	=39	=39	=39
1G	2r	1r	2cc]	1d	1g
.	1G	.	4b-	.	.
.	.	.	4a	.	.
1D	.	1d	2b-	1r	2r
.	2F	.	[2a	.	[2dd
=40	=40	=40	=40	=40	=40
1G	2B-	1d	4a]	1g	2dd]
.	.	.	4g	.	.
.	2B-	.	1g	.	2dd
1r	1A	2e	.	2a	2cc
.	.	2c	2f#	[2cc	2a
=41	=41	=41	=41	=41	=41
2r	1G	2.d	1g	2cc]	1dd
1G	.	.	.	4b-	.
.	.	4c	.	4a	.
.	1r	4d	1r	2b-	[1dd
.	.	4e	.	.	.
2F	.	[2f	.	[2a	.
=42	=42	=42	=42	=42	=42
2B-	1d	2f]	0r	2a]	1dd]
2B-	.	4e	.	2g	.
.	.	4d	.	.	.
2A	2e	2c#	.	2a	1r
2G	[2g	2d	.	2b-	.
=43	=43	=43	=43	=43	=43
1D	2g]	1d	2r	0a	0r
.	4f	.	1d	.	.
.	4e	.	.	.	.
2.A	2f	1r	.	.	.
.	[2e	.	2c	.	.
4G	.	.	.	.	.
=44	=44	=44	=44	=44	=44
2F	2e]	0r	2A	2r	1dd
2G	1d	.	2B-	1g	.
1E	.	.	1G	.	2ee
.	2c#	.	.	2e	[2gg
=45	=45	=45	=45	=45	=45
2D	1d	2r	1A	1a	2gg]
1D	.	1d	.	.	4ff
.	.	.	.	.	4ee
.	[1A	.	2r	1a	2ff
2A	.	2c	2A	.	[2ee
=46	=46	=46	=46	=46	=46
2F	1A]	2f	2c	1a	2ee]
2D	.	2f	2d	.	1dd
1A	2r	1e	2e	1a	.
.	[2A	.	2A	.	2cc#
=47	=47	=47	=47	=47	=47
1D	2A]	[0d	1a	2r	[0dd
.	2d	.	.	1f	.
2r	2B-	.	1d	.	.
[2G	2G	.	.	2g	.
=48	=48	=48	=48	=48	=48
2G]	1d	1d_	2r	2b-	1dd_
2d	.	.	2f	1a	.
2B-	1G	1d_	2g	.	1dd_
2G	.	.	[2b-	[2g	.
=49	=49	=49	=49	=49	=49
1d	2r	0d]	2b-]	2g]	0dd]
.	2.d	.	4a	4f	.
.	.	.	4g	4e	.
1D	.	.	1a	1f#	.
.	4c	.	.	.	.
.	2A	.	.	.	.
=50	=50	=50	=50	=50	=50
0G	1B-	[0d	1d	2.g	[0dd
.	.	.	.	4a	.
.	1G	.	1g	1b-	.
=51	=51	=51	=51	=51	=51
[0D	[0A	1d_	[0f#	[0a	1dd_
.	.	1d_	.	.	1dd_
=52	=52	=52	=52	=52	=52
0D]	0A]	0d]	0f#]	0a]	0dd]
==	==	==	==	==	==
*-	*-	*-	*-	*-	*-
!!!CDT: 1525/^1526/-1594/2/2
!!!OCY: Italia
!!!AGN: Mass (Parody)
!!!AST: renaissance, vocal
!!!ASW: Motet 1532 (Verdelot)
!!!PWK: Masses, Book I
!!!RNB: Cadence finals: A,F
!!!YOR: Le Opere Complete, v. 1, p. 93
!!!YOO: Rome, Italy: Fratelli Scalera
!!!END: 1992//
!!!EED: John Miller
!!!YEC: Copyright 2000, John Miller
!!!YEN: United States of America
!!!YEM: Rights to all derivative electronic formats reserved.
!!!YEM: Refer to licensing agreement for further details.
!!!YEM: This file must be accompanied by the licensing agreement.
!!!YEM: A copy of the licensing agreement may be found at http://www.music-cog.ohio-state.edu/HumdrumDatabases/Palestrina/license.txt
!!!EMD: converted to Humdrum by Bret Aarden
